icons/linear-new-office-data-bar-chart.svg

<svg xmlns="http://www.w3.org/2000/svg" width="32px" height="32px" viewBox="0 0 32 32" version="1.1">
    <title>linear-new-office-data-bar-chart</title>
    <g id="linear-new-office-data-bar-chart" stroke-width="1" fill-rule="evenodd">
        <path d="M9,14 C9.55228475,14 10,14.4477153 10,15 L10,27 C10,27.5522847 9.55228475,28 9,28 L5,28 C4.44771525,28 4,27.5522847 4,27 L4,15 C4,14.4477153 4.44771525,14 5,14 L9,14 Z M8,16 L6,16 L6,26 L8,26 L8,16 Z M18,4 C18.5522847,4 19,4.44771525 19,5 L19,27 C19,27.5522847 18.5522847,28 18,28 L14,28 C13.4477153,28 13,27.5522847 13,27 L13,5 C13,4.44771525 13.4477153,4 14,4 L18,4 Z M17,6 L15,6 L15,26 L17,26 L17,6 Z M27,10 C27.5522847,10 28,10.4477153 28,11 L28,27 C28,27.5522847 27.5522847,28 27,28 L23,28 C22.4477153,28 22,27.5522847 22,27 L22,11 C22,10.4477153 22.4477153,10 23,10 L27,10 Z M26,12 L24,12 L24,26 L26,26 L26,12 Z" id="&#24418;&#29366;" fill-rule="nonzero" />
    </g>
</svg>

<svg xmlns="http://www.w3.org/2000/svg" viewBox="0 0 32 32"><path fill="currentColor" d="M9 14a1 1 0 0 1 1 1v12a1 1 0 0 1-1 1H5a1 1 0 0 1-1-1V15a1 1 0 0 1 1-1zm-1 2H6v10h2zM18 4a1 1 0 0 1 1 1v22a1 1 0 0 1-1 1h-4a1 1 0 0 1-1-1V5a1 1 0 0 1 1-1zm-1 2h-2v20h2zm10 4a1 1 0 0 1 1 1v16a1 1 0 0 1-1 1h-4a1 1 0 0 1-1-1V11a1 1 0 0 1 1-1zm-1 2h-2v14h2z"/></svg>
